src/main/resources/META-INF/pluginIcon.svg

<svg xmlns="http://www.w3.org/2000/svg" width="1000" height="1000" fill="none">
    <path fill="#000" d="M467.253.27c-2.15.195-8.993.879-15.151 1.367-142.034 12.804-275.074 89.43-359.336 207.204-46.92 65.484-76.93 139.764-88.27 218.443C.49 454.748 0 462.86 0 500.098c0 37.238.489 45.35 4.497 72.814C31.672 760.666 165.298 918.414 346.53 976.861c32.453 10.458 66.666 17.592 105.572 21.893 15.151 1.666 80.645 1.666 95.796 0 67.156-7.428 124.047-24.044 180.157-52.681 8.602-4.398 10.264-5.571 9.091-6.548-.782-.586-37.439-49.748-81.428-109.173l-79.96-107.999-100.196-148.268c-55.132-81.513-100.489-148.17-100.88-148.17-.391-.097-.782 65.778-.977 146.215-.293 140.84-.391 146.509-2.151 149.832-2.541 4.789-4.496 6.744-8.602 8.894-3.128 1.564-5.865 1.857-20.625 1.857h-16.912l-4.496-2.835a18.27 18.27 0 0 1-6.549-7.134l-2.053-4.399.195-195.963.293-196.061 3.031-3.812c1.564-2.052 4.887-4.691 7.233-5.962 4.008-1.955 5.572-2.15 22.483-2.15 19.942 0 23.265.782 28.446 6.451 1.466 1.563 55.719 83.272 120.626 181.693 64.907 98.422 153.665 232.811 197.263 298.783l79.178 119.924 4.008-2.639c35.484-23.066 73.021-55.906 102.737-90.114 63.246-72.618 104.008-161.169 117.693-255.583 4.008-27.464 4.497-35.576 4.497-72.814 0-37.238-.489-45.35-4.497-72.814C968.328 239.53 834.702 81.782 653.47 23.335 621.505 12.975 587.488 5.84 549.365 1.54 539.98.562 475.367-.513 467.253.27Zm204.692 302.398c4.692 2.346 8.505 6.842 9.873 11.533.782 2.542.978 56.884.782 179.348l-.293 175.732-30.987-47.5-31.085-47.5V446.538c0-82.588.391-129.013.977-131.261 1.564-5.474 4.985-9.774 9.678-12.315 4.007-2.053 5.474-2.248 20.821-2.248 14.467 0 17.008.195 20.234 1.954Z"/>
</svg>

<svg width="1000" height="1000" viewBox="0 0 1000 1000" fill="none" xmlns="http://www.w3.org/2000/svg">
<path d="M467.253 0.269139C465.103 0.464613 458.26 1.14878 452.102 1.63747C310.068 14.4411 177.028 91.0671 92.7664 208.841C45.8456 274.325 15.8358 348.605 4.49658 427.284C0.488759 454.748 0 462.86 0 500.098C0 537.336 0.488759 545.448 4.49658 572.912C31.6716 760.666 165.298 918.414 346.53 976.861C378.983 987.319 413.196 994.453 452.102 998.754C467.253 1000.42 532.747 1000.42 547.898 998.754C615.054 991.326 671.945 974.71 728.055 946.073C736.657 941.675 738.319 940.502 737.146 939.525C736.364 938.939 699.707 889.777 655.718 830.352L575.758 722.353L475.562 574.085C420.43 492.572 375.073 425.915 374.682 425.915C374.291 425.818 373.9 491.693 373.705 572.13C373.412 712.97 373.314 718.639 371.554 721.962C369.013 726.751 367.058 728.706 362.952 730.856C359.824 732.42 357.087 732.713 342.327 732.713H325.415L320.919 729.878C317.986 728.021 315.836 725.578 314.37 722.744L312.317 718.345L312.512 522.382L312.805 326.321L315.836 322.509C317.4 320.457 320.723 317.818 323.069 316.547C327.077 314.592 328.641 314.397 345.552 314.397C365.494 314.397 368.817 315.179 373.998 320.848C375.464 322.411 429.717 404.12 494.624 502.541C559.531 600.963 648.289 735.352 691.887 801.324L771.065 921.248L775.073 918.609C810.557 895.543 848.094 862.703 877.81 828.495C941.056 755.877 981.818 667.326 995.503 572.912C999.511 545.448 1000 537.336 1000 500.098C1000 462.86 999.511 454.748 995.503 427.284C968.328 239.53 834.702 81.7821 653.47 23.3352C621.505 12.975 587.488 5.84016 549.365 1.53972C539.98 0.562345 475.367 -0.51276 467.253 0.269139ZM671.945 302.668C676.637 305.014 680.45 309.51 681.818 314.201C682.6 316.743 682.796 371.085 682.6 493.549L682.307 669.281L651.32 621.781L620.235 574.281V446.538C620.235 363.95 620.626 317.525 621.212 315.277C622.776 309.803 626.197 305.503 630.89 302.962C634.897 300.909 636.364 300.714 651.711 300.714C666.178 300.714 668.719 300.909 671.945 302.668Z" fill="black"/>
</svg>
